actions/scalable/edit-paste.svg

<?xml version="1.0" encoding="UTF-8" standalone="no"?>
<!-- Created with Inkscape (http://www.inkscape.org/) -->

<svg
   xmlns:dc="http://purl.org/dc/elements/1.1/"
   xmlns:cc="http://creativecommons.org/ns#"
   xmlns:rdf="http://www.w3.org/1999/02/22-rdf-syntax-ns#"
   xmlns:svg="http://www.w3.org/2000/svg"
   xmlns="http://www.w3.org/2000/svg"
   xmlns:sodipodi="http://sodipodi.sourceforge.net/DTD/sodipodi-0.dtd"
   xmlns:inkscape="http://www.inkscape.org/namespaces/inkscape"
   width="48"
   height="48"
   id="svg3815"
   version="1.1"
   inkscape:version="0.48+devel r12660"
   sodipodi:docname="edit-paste.svg">
  <defs
     id="defs3817" />
  <sodipodi:namedview
     id="base"
     pagecolor="#ffffff"
     bordercolor="#666666"
     borderopacity="1.0"
     inkscape:pageopacity="0.0"
     inkscape:pageshadow="2"
     inkscape:zoom="11.52699"
     inkscape:cx="21.453477"
     inkscape:cy="27.017266"
     inkscape:document-units="px"
     inkscape:current-layer="layer1"
     showgrid="false"
     fit-margin-top="0"
     fit-margin-left="0"
     fit-margin-right="0"
     fit-margin-bottom="0"
     inkscape:window-width="1366"
     inkscape:window-height="714"
     inkscape:window-x="0"
     inkscape:window-y="30"
     inkscape:window-maximized="1">
    <sodipodi:guide
       position="9.0000044,39.000009"
       orientation="30.000031,0"
       id="guide3262" />
    <sodipodi:guide
       position="9.0000044,8.9999785"
       orientation="0,30"
       id="guide3264" />
    <sodipodi:guide
       position="39.000004,8.9999785"
       orientation="-30.000031,0"
       id="guide3266" />
    <sodipodi:guide
       position="39.000004,39.000009"
       orientation="0,-30"
       id="guide3268" />
    <sodipodi:guide
       position="28.000004,28.00004"
       orientation="-10.999969,0"
       id="guide3323" />
    <sodipodi:guide
       position="28.000004,39.000009"
       orientation="0,9"
       id="guide3325" />
    <sodipodi:guide
       position="37.000004,39.000009"
       orientation="10.999969,0"
       id="guide3327" />
    <sodipodi:guide
       position="37.000004,28.00004"
       orientation="0,-9"
       id="guide3329" />
    <sodipodi:guide
       position="8.9999954,23.00004"
       orientation="-1.9999999,0"
       id="guide3331" />
    <sodipodi:guide
       position="10.999995,25.00004"
       orientation="1.9999999,0"
       id="guide3335" />
    <sodipodi:guide
       position="36.999995,23.00004"
       orientation="-1.9999999,0"
       id="guide3339" />
    <sodipodi:guide
       position="38.999995,25.00004"
       orientation="1.9999999,0"
       id="guide3343" />
    <sodipodi:guide
       position="24.000004,39.000009"
       orientation="10.999969,0"
       id="guide3357" />
    <sodipodi:guide
       position="24.000004,28.00004"
       orientation="0,4"
       id="guide3359" />
    <sodipodi:guide
       position="28.000004,28.00004"
       orientation="-10.999969,0"
       id="guide3361" />
    <sodipodi:guide
       position="28.000004,39.000009"
       orientation="0,-4"
       id="guide3363" />
    <sodipodi:guide
       position="24.000004,24.00004"
       orientation="0,12.999969"
       id="guide3365" />
    <sodipodi:guide
       position="36.999974,24.00004"
       orientation="-4,0"
       id="guide3367" />
    <sodipodi:guide
       position="36.999974,28.00004"
       orientation="0,-12.999969"
       id="guide3369" />
    <sodipodi:guide
       position="24.000004,28.00004"
       orientation="4,0"
       id="guide3371" />
    <sodipodi:guide
       position="17.499995,34.499979"
       orientation="-1.9999999,0"
       id="guide3296" />
    <sodipodi:guide
       position="30.499995,36.499978"
       orientation="1.9999999,0"
       id="guide3308" />
    <sodipodi:guide
       position="18.500004,38.999979"
       orientation="7,0"
       id="guide3721" />
    <sodipodi:guide
       position="18.500004,31.999979"
       orientation="0,11"
       id="guide3723" />
    <sodipodi:guide
       position="29.500004,31.999979"
       orientation="-7,0"
       id="guide3725" />
    <sodipodi:guide
       position="29.500004,38.999979"
       orientation="0,-11"
       id="guide3727" />
  </sodipodi:namedview>
  <metadata
     id="metadata3820">
    <rdf:RDF>
      <cc:Work
         rdf:about="">
        <dc:format>image/svg+xml</dc:format>
        <dc:type
           rdf:resource="http://purl.org/dc/dcmitype/StillImage" />
        <dc:title />
      </cc:Work>
    </rdf:RDF>
  </metadata>
  <g
     inkscape:label="Capa 1"
     inkscape:groupmode="layer"
     id="layer1"
     transform="translate(-461.71429,-499.79075)">
    <rect
       style="fill:none;stroke:none"
       id="rect3270"
       width="30"
       height="30.000031"
       x="470.71429"
       y="-538.79077"
       transform="scale(1,-1)" />
    <path
       style="fill:#4d4d4d;fill-opacity:1;fill-rule:evenodd;stroke:none"
       d="m 11,13 0,26 13,0 0,-4 -9,0 0,-18 1.5,0 0,-4 z m 20.5,0 0,4 1.5,0 0,7 4,0 0,-11 z"
       transform="translate(461.71429,499.79075)"
       id="rect3278"
       inkscape:connector-curvature="0"
       sodipodi:nodetypes="cccccccccccccccc" />
    <rect
       style="fill:#4d4d4d;fill-opacity:1;fill-rule:evenodd;stroke:none"
       id="rect3320"
       width="9"
       height="10.999969"
       x="489.71429"
       y="527.79077" />
    <path
       d="m 476.71428,-523.79071 a 2.0013857,2.0000615 0 1 1 0,0 2.0013857,2.0000615 0 1 1 0,0 z"
       sodipodi:ry="2.0000615"
       sodipodi:rx="2.0013857"
       sodipodi:cy="-523.79071"
       sodipodi:cx="474.71289"
       id="path3367"
       style="fill:none;stroke:none"
       sodipodi:type="arc"
       transform="scale(1,-1)" />
    <path
       sodipodi:type="arc"
       style="fill:none;stroke:none"
       id="path3349"
       sodipodi:cx="471.71359"
       sodipodi:cy="-523.79077"
       sodipodi:rx="1.0006928"
       sodipodi:ry="1.0000308"
       d="m 472.71429,-523.79077 a 1.0006928,1.0000308 0 1 1 0,0 1.0006928,1.0000308 0 1 1 0,0 z"
       transform="scale(1,-1)" />
    <path
       d="m 500.71429,-523.79077 a 1.0006928,1.0000308 0 1 1 0,0 1.0006928,1.0000308 0 1 1 0,0 z"
       sodipodi:ry="1.0000308"
       sodipodi:rx="1.0006928"
       sodipodi:cy="-523.79077"
       sodipodi:cx="499.71359"
       id="path3351"
       style="fill:none;stroke:none"
       sodipodi:type="arc"
       transform="scale(1,-1)" />
    <rect
       style="fill:#4d4d4d;fill-opacity:1;fill-rule:evenodd;stroke:none"
       id="rect3286"
       width="11"
       height="7"
       x="480.21429"
       y="508.79077" />
    <path
       sodipodi:type="arc"
       style="fill:none;fill-opacity:1;fill-rule:evenodd;stroke:none"
       id="path3288"
       sodipodi:cx="479.21359"
       sodipodi:cy="513.79077"
       sodipodi:rx="1.0006928"
       sodipodi:ry="1.0000308"
       d="m 480.21429,513.79077 a 1.0006928,1.0000308 0 1 1 0,0 1.0006928,1.0000308 0 1 1 0,0 z" />
    <path
       sodipodi:type="arc"
       style="fill:none;stroke:none"
       id="path3302"
       sodipodi:cx="494.21289"
       sodipodi:cy="-510.79074"
       sodipodi:rx="2.0013857"
       sodipodi:ry="2.0000615"
       d="m 496.21428,-510.79074 a 2.0013857,2.0000615 0 1 1 0,0 2.0013857,2.0000615 0 1 1 0,0 z"
       transform="scale(1,-1)" />
    <path
       d="m 493.21429,513.79077 a 1.0006928,1.0000308 0 1 1 0,0 1.0006928,1.0000308 0 1 1 0,0 z"
       sodipodi:ry="1.0000308"
       sodipodi:rx="1.0006928"
       sodipodi:cy="513.79077"
       sodipodi:cx="492.21359"
       id="path3290"
       style="fill:none;fill-opacity:1;fill-rule:evenodd;stroke:none"
       sodipodi:type="arc" />
  </g>
</svg>

<?xml version="1.0" encoding="UTF-8" standalone="no"?>
<!-- Created with Inkscape (http://www.inkscape.org/) -->

<svg
   xmlns:dc="http://purl.org/dc/elements/1.1/"
   xmlns:cc="http://creativecommons.org/ns#"
   xmlns:rdf="http://www.w3.org/1999/02/22-rdf-syntax-ns#"
   xmlns:svg="http://www.w3.org/2000/svg"
   xmlns="http://www.w3.org/2000/svg"
   xmlns:sodipodi="http://sodipodi.sourceforge.net/DTD/sodipodi-0.dtd"
   xmlns:inkscape="http://www.inkscape.org/namespaces/inkscape"
   width="48"
   height="48"
   id="svg3815"
   version="1.1"
   inkscape:version="0.49 r12742"
   sodipodi:docname="edit-paste.svg">
  <defs
     id="defs3817" />
  <sodipodi:namedview
     id="base"
     pagecolor="#ffffff"
     bordercolor="#666666"
     borderopacity="1.0"
     inkscape:pageopacity="0.0"
     inkscape:pageshadow="2"
     inkscape:zoom="11.52699"
     inkscape:cx="21.106465"
     inkscape:cy="26.84376"
     inkscape:document-units="px"
     inkscape:current-layer="layer1"
     showgrid="false"
     fit-margin-top="0"
     fit-margin-left="0"
     fit-margin-right="0"
     fit-margin-bottom="0"
     inkscape:window-width="1366"
     inkscape:window-height="718"
     inkscape:window-x="-2"
     inkscape:window-y="23"
     inkscape:window-maximized="1">
    <sodipodi:guide
       position="9.0000044,39.000009"
       orientation="30.000031,0"
       id="guide3262" />
    <sodipodi:guide
       position="9.0000044,8.9999785"
       orientation="0,30"
       id="guide3264" />
    <sodipodi:guide
       position="39.000004,8.9999785"
       orientation="-30.000031,0"
       id="guide3266" />
    <sodipodi:guide
       position="39.000004,39.000009"
       orientation="0,-30"
       id="guide3268" />
    <sodipodi:guide
       position="28.000004,28.00004"
       orientation="-10.999969,0"
       id="guide3323" />
    <sodipodi:guide
       position="28.000004,39.000009"
       orientation="0,9"
       id="guide3325" />
    <sodipodi:guide
       position="37.000004,39.000009"
       orientation="10.999969,0"
       id="guide3327" />
    <sodipodi:guide
       position="37.000004,28.00004"
       orientation="0,-9"
       id="guide3329" />
    <sodipodi:guide
       position="8.9999954,23.00004"
       orientation="-1.9999999,0"
       id="guide3331" />
    <sodipodi:guide
       position="10.999995,25.00004"
       orientation="1.9999999,0"
       id="guide3335" />
    <sodipodi:guide
       position="36.999995,23.00004"
       orientation="-1.9999999,0"
       id="guide3339" />
    <sodipodi:guide
       position="38.999995,25.00004"
       orientation="1.9999999,0"
       id="guide3343" />
    <sodipodi:guide
       position="24.000004,39.000009"
       orientation="10.999969,0"
       id="guide3357" />
    <sodipodi:guide
       position="24.000004,28.00004"
       orientation="0,4"
       id="guide3359" />
    <sodipodi:guide
       position="28.000004,28.00004"
       orientation="-10.999969,0"
       id="guide3361" />
    <sodipodi:guide
       position="28.000004,39.000009"
       orientation="0,-4"
       id="guide3363" />
    <sodipodi:guide
       position="24.000004,24.00004"
       orientation="0,12.999969"
       id="guide3365" />
    <sodipodi:guide
       position="36.999974,24.00004"
       orientation="-4,0"
       id="guide3367" />
    <sodipodi:guide
       position="36.999974,28.00004"
       orientation="0,-12.999969"
       id="guide3369" />
    <sodipodi:guide
       position="24.000004,28.00004"
       orientation="4,0"
       id="guide3371" />
    <sodipodi:guide
       position="17.499995,34.499979"
       orientation="-1.9999999,0"
       id="guide3296" />
    <sodipodi:guide
       position="30.499995,36.499978"
       orientation="1.9999999,0"
       id="guide3308" />
    <sodipodi:guide
       position="18.500004,38.999979"
       orientation="7,0"
       id="guide3721" />
    <sodipodi:guide
       position="18.500004,31.999979"
       orientation="0,11"
       id="guide3723" />
    <sodipodi:guide
       position="29.500004,31.999979"
       orientation="-7,0"
       id="guide3725" />
    <sodipodi:guide
       position="29.500004,38.999979"
       orientation="0,-11"
       id="guide3727" />
  </sodipodi:namedview>
  <metadata
     id="metadata3820">
    <rdf:RDF>
      <cc:Work
         rdf:about="">
        <dc:format>image/svg+xml</dc:format>
        <dc:type
           rdf:resource="http://purl.org/dc/dcmitype/StillImage" />
        <dc:title />
      </cc:Work>
    </rdf:RDF>
  </metadata>
  <g
     inkscape:label="Capa 1"
     inkscape:groupmode="layer"
     id="layer1"
     transform="translate(-461.71429,-499.79075)">
    <path
       style="fill:#4d4d4d;fill-opacity:1;fill-rule:evenodd;stroke:none"
       d="M 18.5 9 L 18.5 16 L 29.5 16 L 29.5 9 L 18.5 9 z M 11 13 L 11 39 L 24 39 L 24 35 L 15 35 L 15 17 L 16.5 17 L 16.5 13 L 11 13 z M 31.5 13 L 31.5 17 L 33 17 L 33 24 L 37 24 L 37 13 L 31.5 13 z M 28 28 L 28 39 L 37 39 L 37 28 L 28 28 z "
       transform="translate(461.71429,499.79075)"
       id="rect3278" />
  </g>
</svg>
